X: 448
T: The Brown Mallet
N:"Moderate"
N:Irish title: an sma.cdaoin cron
B:O'Neill's 448
Z:Transcribed by henrik.norbeck@mailbox.swipnet.se
M:2/4
L:1/8
K:G
D | GG B>G | B d3 | GG (BA/G/) | F A3 |
GG (B>G) | B d3 | ed/B/ GA | G3 :|
(3d/e/f/ | gf e.f | ed z (3d/e/f/ | .g.f .e.f | d3 (3d/e/f/ |
gf ed | B e3 | d>B G>A | HG3 :|


